Sources/FrostedUI/Resources/Icons.xcassets/gamepad24.imageset/gamepad-24.svg

<svg width="24" height="24" viewBox="0 0 24 24" fill="none" xmlns="http://www.w3.org/2000/svg" data-fui-icon="true">
  <path
    d="M16.5359 3.24951C20.0196 3.24951 22.9312 5.90122 23.2566 9.36963L23.9392 16.6499C24.1451 18.8492 22.4148 20.7492 20.2058 20.7495H19.9998C19.1885 20.7494 18.3988 20.4863 17.7498 19.9995L15.3494 18.1997C14.96 17.9079 14.4864 17.7495 13.9998 17.7495H9.99976C9.5131 17.7496 9.0395 17.9077 8.65015 18.1997L6.24976 19.9995C5.60065 20.4863 4.81114 20.7495 3.99976 20.7495H3.7937C1.58489 20.7491 -0.145623 18.8491 0.0603027 16.6499L0.74292 9.36963C1.06827 5.9013 3.98006 3.24967 7.46362 3.24951H16.5359ZM7.46362 4.74951C4.75429 4.74967 2.48924 6.81183 2.23608 9.50928L1.55444 16.7896C1.43074 18.1091 2.46848 19.2491 3.7937 19.2495H3.99976C4.48652 19.2495 4.95993 19.0913 5.34937 18.7993L7.74976 16.9995C8.39878 16.5127 9.18848 16.2496 9.99976 16.2495H13.9998C14.811 16.2495 15.6007 16.5129 16.2498 16.9995L18.6501 18.7993C19.0395 19.0913 19.5131 19.2494 19.9998 19.2495H20.2058C21.5312 19.2492 22.5688 18.1092 22.4451 16.7896L21.7634 9.50928C21.5102 6.81175 19.2453 4.74951 16.5359 4.74951H7.46362ZM14.9998 11.6001C15.6625 11.6001 16.2 12.1376 16.2 12.8003C16.1998 13.4629 15.6624 14.0005 14.9998 14.0005C14.3373 14.0002 13.7997 13.4627 13.7996 12.8003C13.7996 12.1377 14.3372 11.6003 14.9998 11.6001ZM7.99976 7.99951C8.41383 7.99951 8.74953 8.33549 8.74976 8.74951V10.2495H10.2498C10.6638 10.2495 10.9995 10.5855 10.9998 10.9995C10.9998 11.4137 10.664 11.7495 10.2498 11.7495H8.74976V13.2495C8.74976 13.6637 8.41397 13.9995 7.99976 13.9995C7.58564 13.9994 7.24976 13.6637 7.24976 13.2495V11.7495H5.74976C5.33564 11.7494 4.99976 11.4137 4.99976 10.9995C4.99998 10.5856 5.33578 10.2496 5.74976 10.2495H7.24976V8.74951C7.24998 8.33556 7.58578 7.99962 7.99976 7.99951ZM17.3992 8.00049C18.0618 8.00049 18.5991 8.53716 18.5994 9.19971C18.5993 9.86237 18.0619 10.3999 17.3992 10.3999C16.7368 10.3995 16.2 9.86213 16.2 9.19971C16.2002 8.53739 16.7369 8.00087 17.3992 8.00049Z"
    fill="currentColor"
  />
</svg>

<svg xmlns="http://www.w3.org/2000/svg" width="24" height="24" fill="none" data-fui-icon="true" viewBox="0 0 24 24"><path fill="currentColor" d="M16.536 3.25a6.75 6.75 0 0 1 6.72 6.12l.683 7.28a3.75 3.75 0 0 1-3.733 4.1H20a3.75 3.75 0 0 1-2.25-.75l-2.4-1.8a2.25 2.25 0 0 0-1.35-.45h-4c-.487 0-.96.158-1.35.45L6.25 20a3.75 3.75 0 0 1-2.25.75h-.206a3.75 3.75 0 0 1-3.734-4.1l.683-7.28a6.75 6.75 0 0 1 6.72-6.12zm-9.072 1.5a5.25 5.25 0 0 0-5.228 4.76l-.682 7.28a2.25 2.25 0 0 0 2.24 2.46H4c.487 0 .96-.159 1.35-.45l2.4-1.8a3.75 3.75 0 0 1 2.25-.75h4c.811 0 1.6.263 2.25.75l2.4 1.8c.39.291.863.45 1.35.45h.206a2.25 2.25 0 0 0 2.24-2.46l-.683-7.28a5.25 5.25 0 0 0-5.227-4.76zM15 11.6a1.2 1.2 0 1 1 0 2.4 1.2 1.2 0 0 1 0-2.4M8 8a.75.75 0 0 1 .75.75v1.5h1.5a.75.75 0 0 1 0 1.5h-1.5v1.5a.75.75 0 0 1-1.5 0v-1.5h-1.5a.75.75 0 0 1 0-1.5h1.5v-1.5A.75.75 0 0 1 8 8m9.4 0a1.2 1.2 0 1 1 0 2.4 1.2 1.2 0 0 1 0-2.4"/></svg>
